dist/intermediate-svg/warehouse-info.svg

<?xml version="1.0" encoding="utf-8"?><svg width="24" height="24" fill="none" xmlns="http://www.w3.org/2000/svg" viewBox="0 0 24 24"><g clip-path="url(#fxclip0)"><path d="M18.6777 3.24264L11.6066 3.24264C11.3414 3.24264 11.0871 3.348 10.8995 3.53553L2.70714 11.7279C2.31661 12.1184 2.31661 12.7516 2.70714 13.1421L9.7782 20.2132C10.1687 20.6037 10.8019 20.6037 11.1924 20.2132L19.3848 12.0208C19.5723 11.8333 19.6777 11.5789 19.6777 11.3137L19.6777 4.24264C19.6777 3.69036 19.23 3.24264 18.6777 3.24264Z" stroke="#333"/><circle cx="16.142" cy="6.778" r="1.5" transform="rotate(45 16.1421 6.77813)" stroke="#0094FF"/></g><defs><clipPath id="fxclip0"><path fill="#fff" d="M0 0H24V24H0z"/></clipPath></defs></svg>

<?xml version="1.0" encoding="utf-8"?><svg width="24" height="24" fill="none" xmlns="http://www.w3.org/2000/svg" viewBox="0 0 24 24"><g clip-path="url(#hcclip0)"><path d="M18.678 3.243h-7.071a1 1 0 00-.707.293l-8.193 8.192a1 1 0 000 1.414l7.071 7.071a1 1 0 001.414 0l8.193-8.192a1 1 0 00.293-.707V4.243a1 1 0 00-1-1z" stroke="#333"/><circle cx="16.142" cy="6.778" r="1.5" transform="rotate(45 16.142 6.778)" stroke="#0094FF"/></g><defs><clipPath id="hcclip0"><path fill="#fff" d="M0 0h24v24H0z"/></clipPath></defs></svg>
